X:138 
T:McCahill's (2) (reel) 
B:CRE3.142 (Ril Mhic Cathail 2)
F:file ID: cre.3/138mccah
N:1:This is #2 but there's no #1 (at least in CRE3).
N:2:Third part is reproduced as it appears in CRE. If
I were going to play this I'd move the lower E's and F's
up an octave.
R:reel
L:1/8
Q:180
M:C
K:D
dDcD BDAF|EFGA BEE2|Add2 fdAF|GBAG FD (3FED|
dDcD BDAF|EFGA BEE2|Add2 fdAF|GBAG FDD||
%B
A|B2dB AFDA|B2dB BcdA|BAGB AFDF|GAFG EFGA|
BAGB AFDF|B2dA BcdA|BAGB AFDF|GEFD EFGB|
%C
e2ge bege|EFge fgaf|e2ge bege|E2gE fecf|
e2ge bege|EFge fgaf|e2ge bege|E2GE fecf||

%%%

